actions/scalable/tools-media-optical-burn.svg

<?xml version="1.0" encoding="UTF-8" standalone="no"?>
<!-- Created with Inkscape (http://www.inkscape.org/) -->

<svg
   xmlns:dc="http://purl.org/dc/elements/1.1/"
   xmlns:cc="http://creativecommons.org/ns#"
   xmlns:rdf="http://www.w3.org/1999/02/22-rdf-syntax-ns#"
   xmlns:svg="http://www.w3.org/2000/svg"
   xmlns="http://www.w3.org/2000/svg"
   xmlns:sodipodi="http://sodipodi.sourceforge.net/DTD/sodipodi-0.dtd"
   xmlns:inkscape="http://www.inkscape.org/namespaces/inkscape"
   width="22"
   height="22"
   id="svg2"
   version="1.1"
   inkscape:version="0.48+devel r"
   viewBox="0 0 22 22"
   sodipodi:docname="tools-media-optical-burn.svg">
  <defs
     id="defs4" />
  <sodipodi:namedview
     id="base"
     pagecolor="#ffffff"
     bordercolor="#666666"
     borderopacity="1.0"
     inkscape:pageopacity="0.0"
     inkscape:pageshadow="2"
     inkscape:zoom="32.676067"
     inkscape:cx="12.135619"
     inkscape:cy="8.4694012"
     inkscape:document-units="px"
     inkscape:current-layer="layer1"
     showgrid="true"
     inkscape:showpageshadow="false"
     units="px"
     inkscape:window-width="1366"
     inkscape:window-height="666"
     inkscape:window-x="-2"
     inkscape:window-y="25"
     inkscape:window-maximized="1"
     showguides="true">
    <inkscape:grid
       type="xygrid"
       id="grid4101" />
    <sodipodi:guide
       position="2,20.000017"
       orientation="18,0"
       id="guide4107" />
    <sodipodi:guide
       position="2,2.0000174"
       orientation="0,18"
       id="guide4109" />
    <sodipodi:guide
       position="20,2.0000174"
       orientation="-18,0"
       id="guide4111" />
    <sodipodi:guide
       position="20,20.000017"
       orientation="0,-18"
       id="guide4113" />
    <sodipodi:guide
       position="3,19.000017"
       orientation="16,0"
       id="guide4115" />
    <sodipodi:guide
       position="3,3.0000174"
       orientation="0,16"
       id="guide4117" />
    <sodipodi:guide
       position="19,3.0000174"
       orientation="-16,0"
       id="guide4119" />
    <sodipodi:guide
       position="19,19.000017"
       orientation="0,-16"
       id="guide4121" />
  </sodipodi:namedview>
  <metadata
     id="metadata7">
    <rdf:RDF>
      <cc:Work
         rdf:about="">
        <dc:format>image/svg+xml</dc:format>
        <dc:type
           rdf:resource="http://purl.org/dc/dcmitype/StillImage" />
        <dc:title />
      </cc:Work>
    </rdf:RDF>
  </metadata>
  <g
     inkscape:label="Capa 1"
     inkscape:groupmode="layer"
     id="layer1"
     transform="translate(0,-1030.3622)">
    <path
       style="opacity:1;fill:#666666;fill-opacity:1;stroke:none"
       d="M 11 3 C 6.568 3 3 6.568 3 11 C 3 15.432 6.568 19 11 19 C 11.692084 19 12.360349 18.903948 13 18.740234 L 13 17.707031 C 12.366247 17.894565 11.696167 18 11 18 C 7.122 18 4 14.878 4 11 C 4 7.122 7.122 4 11 4 C 14.878 4 18 7.122 18 11 C 18 11.696167 17.894565 12.366247 17.707031 13 L 18.740234 13 C 18.903948 12.360349 19 11.692084 19 11 C 19 6.568 15.432 3 11 3 z M 11 5 C 7.676004 5 5 7.676 5 11 L 8 11 C 8 9.338 9.3380018 8 11 8 L 11 5 z M 11 9 C 9.8920013 9 9 9.892 9 11 C 9 12.108 9.8920013 13 11 13 C 12.107999 13 13 12.108 13 11 C 13 9.892 12.107999 9 11 9 z M 11 10 C 11.553999 10 12 10.446 12 11 C 12 11.554 11.553999 12 11 12 C 10.446001 12 10 11.554 10 11 C 10 10.446 10.446001 10 11 10 z M 14 11 C 14 11.352948 13.931268 11.687647 13.818359 12 L 16.910156 12 C 16.966308 11.675132 17 11.341682 17 11 L 14 11 z M 13 13.224609 C 12.469123 13.70179 11.773296 14 11 14 L 11 17 C 11.703343 17 12.373894 16.872755 13 16.652344 L 13 13.224609 z "
       transform="translate(0,1030.3622)"
       id="rect4119" />
    <path
       style="opacity:1;fill:#666666;fill-opacity:1;stroke:none;stroke-width:2.79999995;stroke-miterlimit:4;stroke-dasharray:none;stroke-opacity:0.55026455"
       d="m 15.404297,1043.4032 c 2.021872,0.2042 3.595703,1.8815 3.595703,3.959 0,1.108 -0.892005,2 -2,2 -1.107995,0 -2,-0.892 -2,-2 0,-0.7514 0.415754,-1.3964 1.025391,-1.7383 -0.01248,0.078 -0.02539,0.1565 -0.02539,0.2383 0,0.3698 0.137081,0.7039 0.357422,0.9648 C 16.75106,1046.4623 17,1045.9437 17,1045.3622 c 0,-0.9695 -0.682695,-1.7731 -1.595703,-1.959 z"
       id="rect4185"
       inkscape:connector-curvature="0" />
  </g>
</svg>

<svg height="22" viewBox="0 0 22 22" width="22" xmlns="http://www.w3.org/2000/svg" xmlns:sodipodi="http://sodipodi.sourceforge.net/DTD/sodipodi-0.dtd" xmlns:inkscape="http://www.inkscape.org/namespaces/inkscape">
 <g transform="matrix(1 0 0 1 0 -1030.4)">
  <path d="m11 3c-4.432 0-8 3.568-8 8s3.568 8 8 8c0.692 0 1.36-0.096 2-0.26v-1.033c-0.634 0.188-1.304 0.293-2 0.293-3.878 0-7-3.122-7-7s3.122-7 7-7 7 3.122 7 7c0 0.696-0.105 1.366-0.293 2h1.033c0.164-0.64 0.26-1.308 0.26-2 0-4.432-3.568-8-8-8zm0 2c-3.324 0-6 2.676-6 6h3c0-1.662 1.338-3 3-3v-3zm0 4c-1.108 0-2 0.892-2 2s0.892 2 2 2 2-0.892 2-2-0.892-2-2-2zm0 1c0.554 0 1 0.446 1 1s-0.446 1-1 1-1-0.446-1-1 0.446-1 1-1zm3 1c0 0.353-0.069 0.688-0.182 1h3.092c0.056-0.325 0.09-0.658 0.09-1h-3zm-1 2.225c-0.531 0.477-1.227 0.775-2 0.775v3c0.703 0 1.374-0.127 2-0.348v-3.427z" fill="#4d4d4d" transform="matrix(1 0 0 1 0 1030.4)"/>
  <path d="m15.404 1043.4c2.0219 0.2042 3.5957 1.8815 3.5957 3.959 0 1.108-0.892 2-2 2s-2-0.892-2-2c0-0.7514 0.41575-1.3964 1.0254-1.7383-0.01248 0.078-0.02539 0.1565-0.02539 0.2383 0 0.3698 0.13708 0.7039 0.35742 0.9648 0.394-0.3 0.643-0.9 0.643-1.4 0-0.9695-0.6827-1.7731-1.5957-1.959z" fill="#4d4d4d"/>
 </g>
</svg>
